X:41
T: Der Maedchenmoerder (Halewijn - Ulinger)
N: Q0041W
O: Mitteleuropa, Deutschland (BRD) , Hessen
R: Ballade, Verfuehrung, Mord, Mordversuch bzw. Rache
M: 6/8
L: 1/16
K: G
D2 | D2E2F2G3AB2 | A2A2GED4
DF | A2A2A2d2d2d2 | B4A2G4
GB | d2d2d2e3ee2 | d4c2B4
d2 | e4e2d2c2B2 | A4c2B4

